!!!!SEGMENT: pl-wtm--r-1227--007_lodwigowski-edward-stefan--matka-nie-wiedzac-powodu.krn
!!!cenid: 18xx:1947
!!!COM: Łodwigowski, Edward Stefan
!!!COM-rismID: pe30111147
!!!CDT: 1815/08/14-1895/11/12
!!!CNT: Polish
!!!OTL: Matka nie wiedząc powodu
!!!PDT:
!!!AGN:
!!!SMS-siglum: PL-Wtm
!!!SMS-shelfmark: R 1227
!!!SMS-shelfwork: 007 W
!!!SMS-variant:
!!!SMS-altvar:
!!!NIFC-rismSourceID: 1001084040
!!!NIFC-islandoraID:
!!!URL-pdf-islandora:
!!!URL-scan:
!!!ONB-nifc: UWAGA: No. 79
!!!OMD: Allegro.
!!!AIN: 1 forte
!!!key:
**kern	**fing	**kern	**fing	**dynam
*part1	*part1	*part1	*part1	*part1
*staff2	*staff2	*staff1	*staff1	*
*Iforte	*	*Iforte	*	*
*I"Fortepian	*	*I"Fortepian	*	*
*>[A,A,B,B]	*>[A,A,B,B]	*>[A,A,B,B]	*>[A,A,B,B]	*>[A,A,B,B]
*>A	*>A	*>A	*>A	*>A
*clefF4	*	*clefG2	*	*
*k[f#]	*	*k[f#]	*	*
*G:	*	*G:	*	*
*M6/8	*	*M6/8	*	*
*all\right	*	*all\right	*	*
=1	=1	=1	=1	=1
*	*below	*	*	*
!	!	!LO:TX:a:Bi:t=No 79.	!	!
!	!	!LO:TX:a:i:t=Matka nie wiedząc powodu. P. L. P.	!	!
8G\L	4	4g/	1	p
8B\	.	.	.	.
8d\J	.	8g/	.	.
8G\L	.	4b\	3	.
8B\	.	.	.	.
8d\J	.	8b\	.	.
=2	=2	=2	=2	=2
8G\L	.	4dd\	5	.
8B\	.	.	.	.
8d\J	.	8dd\	.	.
8G\L	.	(8dd\L	.	.
8B\	.	8cc\	.	.
8d\J	.	8b\J)	.	.
=3	=3	=3	=3	=3
8D\L	.	8a'/L	.	.
8F#\	.	8a'/	.	.
8c\J	.	8a'/J	.	.
8D\L	.	(8cc\L	.	.
8F#\	.	8b\	.	.
8c\J	.	8a\J)	.	.
=4	=4	=4	=4	=4
8G\L	.	8g'/L	1	.
8B\	.	8g'/	3	.
8d\J	.	8g'/J	2	.
8G\L	.	4g'/	1	.
8B\	.	.	.	.
8d\J	.	8r	.	.
!!LO:LB:g=original
=5:|!|:	=5:|!|:	=5:|!|:	=5:|!|:	=5:|!|:
*>B	*>B	*>B	*>B	*>B
8C\L	.	4ee 4cc\	1 3	f
8E\	.	.	.	.
8G\J	.	8ee 8cc\	.	.
8C\L	.	(8ggL 8ee\	.	.
8E\	.	8ff# 8dd\	.	.
8G\J	.	8eeJ 8cc\)	.	.
=6	=6	=6	=6	=6
8G\L	.	(8eeL 8cc\	2 4	.
8B\	.	8dd 8b\)	.	.
8d\J	.	8ddJ 8b'\	.	.
8G\L	.	4dd 4b\	.	.
8B\	.	.	.	.
8d\J	.	8r	.	.
=7	=7	=7	=7	=7
8D\L	.	4cc 4a\	1 3	.
8F#\	.	.	.	.
8c\J	.	8cc 8a\	.	.
8D\L	.	(8eeL 8cc\	.	.
8F#\	.	8dd 8b\	.	.
8c\J	.	8ccJ 8a\)	.	.
=8	=8	=8	=8	=8
8G\L	.	(8ccL 8a\	2 4	.
8B\	.	8b 8g\)	.	.
8d\J	.	8bJ 8g\	.	.
8G\L	.	4b 4g\	.	.
8B\	.	.	.	.
8d\J	.	8r	.	.
!!LO:LB:g=original
=9	=9	=9	=9	=9
!	!	!	!	!LO:HP:t=dimi
8D\L	.	8aL 8f#'/	2 3	>
8A\	.	8a 8f#'/	.	.
8c\J	.	8aJ 8f#'/	.	.
8D\L	.	8ccL 8a\	3 5	.
8A\	.	8b 8g\	1 4	.
8c\J	.	8aJ 8f#\	.	.
=10	=10	=10	=10	=10
8G\L	.	8bL 8g\	1 4	.
8B\	.	8b 8g\	1 3	.
8d\J	.	8bJ 8g\	.	.
8G\L	.	8ddL 8b\	.	.
8B\	.	8cc 8a\	.	.
8d\J	.	8bJ 8g\	.	.
=11	=11	=11	=11	=11
8D\L	.	8aL 8f#/	2 3	.
8A\	.	8a 8f#/	.	.
8c\J	.	8aJ 8f#/	.	.
8D\L	.	8ccL 8a\	.	.
8A\	.	8b 8g\	.	.
8c\J	.	8aJ 8f#\	.	.
=12	=12	=12	=12	=12
8G\L	.	4g/	1	.
8B\	.	.	.	.
8e\J	.	8g/	2	.
4B 4G\	.	4g/	1	.
8r	.	8r	.	.
=:|!	=:|!	=:|!	=:|!	=:|!
*-	*-	*-	*-	*-
!!!system-decoration: {p1}
!!!RDF**kern: > = above
!!!RDF**kern: < = below
!!!RDF**kern: | = vertical stroke
!!!ENC: Andrzej Kubiczek
!!!END: 2021-05-02
!!!ENC: Andrzej Gręziak
!!!END: 2021-04-17
